luts/custom/SVM_Florida_Coastal_v1.cube
# DaVinci Resolve Cube (3D LUT).
#
# Sawyer Visual Media — Florida Coastal Aerial
# DJI Mini 5 Pro D-Log M → Creative Grade
# Base: Official DJI D-Log M to Rec.709
# Creative: Warm highlights, teal shadows, sunset/water pop
# Optimized for: Polarized ND, SW Florida, aerial/coastal
#
LUT_3D_SIZE 5
0.0000000000 0.0070747057 0.0159579057
0.0621825401 0.0056811108 0.0142384719
0.5328034452 0.0000000000 0.0019422329
0.9550000000 0.0000000000 0.0000000000
0.9550000000 0.0000000000 0.0122470790
0.0000000000 0.0634002746 0.0098447134
0.0452746228 0.0675469512 0.0076013577
0.6221671926 0.0342583158 0.0000000000
0.9550000000 0.0000000000 0.0000000000
0.9550000000 0.0063932493 0.0000000000
0.0000000000 0.4822517130 0.0000000000
0.0141973406 0.4887854918 0.0000000000
0.4439773282 0.4900104651 0.0000000000
0.9550000000 0.4042403664 0.0000000000
0.9550000000 0.0249212379 0.0000000000
0.0000000000 0.9191832163 0.0000000000
0.0000000000 0.9187643505 0.0000000000
0.3168035113 0.9145604849 0.0000000000
0.8913801468 0.8995284251 0.0000000000
0.9550000000 0.7709332406 0.0000000000
0.0000000000 0.9550000000 0.0000000000
0.0000000000 0.9550000000 0.0000000000
0.1347180262 0.9550000000 0.0000000000
0.7285961312 0.9550000000 0.0000000000
0.9550000000 0.9550000000 0.0000000000
0.0000000000 0.0090950409 0.0778246367
0.0726057635 0.0054354095 0.0745573365
0.5336071500 0.0000000000 0.0740322366
0.9550000000 0.0000000000 0.0734157136
0.9550000000 0.0028088093 0.1014883010
0.0000000000 0.0711338084 0.0814696299
0.0528745052 0.0639465335 0.0712069841
0.6150059940 0.0252346103 0.0338263861
0.9550000000 0.0049932234 0.0199930495
0.9550000000 0.0157780060 0.0621856745
0.0000000000 0.5211848385 0.0000000000
0.0000000000 0.5231721022 0.0000000000
0.4752840523 0.4874285926 0.0000000000
0.9550000000 0.3712535809 0.0000000000
0.9550000000 0.0861215200 0.0000000000
0.0000000000 0.9255474328 0.0000000000
0.0000000000 0.9258637348 0.0000000000
0.2338704253 0.9176522226 0.0000000000
0.8988708673 0.8987861877 0.0000000000
0.9550000000 0.7597839038 0.0000000000
0.0000000000 0.9550000000 0.0000000000
0.0000000000 0.9550000000 0.0000000000
0.0559745174 0.9550000000 0.0000000000
0.7013835545 0.9550000000 0.0000000000
0.9550000000 0.9550000000 0.0000000000
0.0000000000 0.0156089008 0.5607364905
0.0926959185 0.0101244680 0.5415437136
0.5799128343 0.0000000000 0.5208417453
0.9550000000 0.0000000000 0.5035523816
0.9550000000 0.0000000000 0.4481706684
0.0000000000 0.0641489990 0.6478718066
0.0729499669 0.0475083538 0.6188193520
0.5942100006 0.0226686652 0.5723182631
0.9550000000 0.0032017309 0.4916619248
0.9550000000 0.0076390256 0.4104079602
0.0000000000 0.5162938706 0.5248799985
0.0000000000 0.5166736464 0.5230174059
0.4645034595 0.4626822139 0.4596785025
0.9550000000 0.3369010029 0.3563815639
0.9550000000 0.1234442749 0.2526891544
0.0000000000 0.9311047794 0.2287797769
0.0000000000 0.9307279191 0.1974580469
0.1153536227 0.9237277582 0.1718777283
0.9060475859 0.8932459840 0.0723185211
0.9550000000 0.7467299566 0.0000000000
0.0000000000 0.9550000000 0.0000000000
0.0000000000 0.9550000000 0.0000000000
0.0000000000 0.9550000000 0.0000000000
0.5744096921 0.9550000000 0.0000000000
0.9550000000 0.9550000000 0.0000000000
0.0000000000 0.0444135125 0.9550000000
0.1025716462 0.0327997397 0.9550000000
0.6186692283 0.0112808582 0.9550000000
0.9550000000 0.0000000000 0.9550000000
0.9550000000 0.0000000000 0.9175638924
0.0000000000 0.1091394663 0.9550000000
0.0881502719 0.0929227174 0.9550000000
0.6085381480 0.0486091987 0.9550000000
0.9550000000 0.0055063263 0.9550000000
0.9550000000 0.0000000000 0.9136488776
0.0000000000 0.4862443280 0.9550000000
0.0000000000 0.4621258184 0.9550000000
0.4972235233 0.4000135898 0.9550000000
0.9550000000 0.2935734421 0.9550000000
0.9550000000 0.1386414457 0.8886655216
0.0000000000 0.9240227685 0.9203379011
0.0000000000 0.9260171474 0.9222392922
0.0749569705 0.9178380914 0.9115764406
0.8814267336 0.8723759080 0.8586447129
0.9550000000 0.7074064361 0.7349985068
0.0000000000 0.9550000000 0.5605554866
0.0000000000 0.9550000000 0.5356501121
0.0000000000 0.9550000000 0.5129029643
0.2705508725 0.9550000000 0.4733435454
0.9550000000 0.9550000000 0.3370357016
0.0000000000 0.2626339608 0.9550000000
0.0571175670 0.2486393681 0.9550000000
0.5955251767 0.1909685231 0.9550000000
0.9550000000 0.1029656237 0.9550000000
0.9550000000 0.0000000000 0.9550000000
0.0000000000 0.2614714482 0.9550000000
0.0765070437 0.2468752037 0.9550000000
0.5990442706 0.1905823375 0.9550000000
0.9550000000 0.1021185967 0.9550000000
0.9550000000 0.0000000000 0.9550000000
0.0000000000 0.5063913962 0.9550000000
0.0000000000 0.4952797110 0.9550000000
0.5227465281 0.4431525937 0.9550000000
0.9550000000 0.3368900212 0.9550000000
0.9550000000 0.1804684814 0.9550000000
0.0000000000 0.8916320199 0.9550000000
0.0000000000 0.8856404862 0.9550000000
0.1328180445 0.8710347197 0.9550000000
0.9031649846 0.7998994300 0.9550000000
0.9550000000 0.6718155905 0.9550000000
0.0000000000 0.9550000000 0.9550000000
0.0000000000 0.9550000000 0.9550000000
0.0000000000 0.9550000000 0.9550000000
0.2060297754 0.9550000000 0.9550000000
0.9550000000 0.9550000000 0.9417751016
