luts/custom/SVM_Florida_Coastal_v1.cube
# DaVinci Resolve Cube (3D LUT).
#
# Sawyer Visual Media — Florida Coastal Aerial
# DJI Mini 5 Pro D-Log M → Creative Grade
# Base: Official DJI D-Log M to Rec.709
# Creative: Warm highlights, teal shadows, sunset/water pop
# Optimized for: Polarized ND, SW Florida, aerial/coastal
#
LUT_3D_SIZE	33
0.0000000000 0.0070747057 0.0159579057
0.0000000000 0.0070956394 0.0159590627
0.0000000000 0.0071806811 0.0159483224
0.0000000000 0.0071643452 0.0159397305
0.0059747844 0.0069687642 0.0157745155
0.0139876623 0.0067664553 0.0155459286
0.0230175141 0.0065634257 0.0152453540
0.0325181377 0.0063681917 0.0150333067
0.0621825401 0.0056811108 0.0142384719
0.1068957046 0.0046398915 0.0131098124
0.1579928058 0.0034679480 0.0118203336
0.2152381785 0.0021424811 0.0103417134
0.2768946647 0.0006903803 0.0087034437
0.3405921072 0.0000000000 0.0070159771
0.4051029282 0.0000000000 0.0053159369
0.4697995813 0.0000000000 0.0035928682
0.5328034452 0.0000000000 0.0019422329
0.5964820114 0.0000000000 0.0003027045
0.6654050893 0.0000000000 0.0000000000
0.7382100096 0.0000000000 0.0000000000
0.8117226902 0.0000000000 0.0000000000
0.8722249845 0.0000000000 0.0000000000
0.9164061383 0.0000000000 0.0000000000
0.9503473205 0.0000000000 0.0000000000
0.9550000000 0.0000000000 0.0000000000
0.9550000000 0.0000000000 0.0000000000
0.9550000000 0.0000000000 0.0000000000
0.9550000000 0.0000000000 0.0000000000
0.9550000000 0.0000000000 0.0000000000
0.9550000000 0.0000000000 0.0000000000
0.9550000000 0.0000000000 0.0015351461
0.9550000000 0.0000000000 0.0050019077
0.9550000000 0.0000000000 0.0122470790
0.0000000000 0.0074326662 0.0159194745
0.0000000000 0.0074416636 0.0159149615
0.0000000000 0.0073781248 0.0159153543
0.0000000000 0.0072589659 0.0159012496
0.0065756575 0.0069540641 0.0157270714
0.0145258233 0.0067375677 0.0154886276
0.0234546192 0.0065367262 0.0151873444
0.0330965091 0.0063628848 0.0149859555
0.0647650085 0.0056142582 0.0141214313
0.1096560479 0.0045499153 0.0129604135
0.1597904509 0.0033937711 0.0117048805
0.2169020262 0.0020650893 0.0102285755
0.2785868777 0.0006085246 0.0085806392
0.3429572331 0.0000000000 0.0068316449
0.4077651101 0.0000000000 0.0050934028
0.4721023372 0.0000000000 0.0033883324
0.5349098687 0.0000000000 0.0017517697
0.5983358738 0.0000000000 0.0001255146
0.6669906024 0.0000000000 0.0000000000
0.7395462450 0.0000000000 0.0000000000
0.8127925614 0.0000000000 0.0000000000
0.8727894770 0.0000000000 0.0000000000
0.9167719473 0.0000000000 0.0000000000
0.9506507977 0.0000000000 0.0000000000
0.9550000000 0.0000000000 0.0000000000
0.9550000000 0.0000000000 0.0000000000
0.9550000000 0.0000000000 0.0000000000
0.9550000000 0.0000000000 0.0000000000
0.9550000000 0.0000000000 0.0000000000
0.9550000000 0.0000000000 0.0000000000
0.9550000000 0.0000000000 0.0014344488
0.9550000000 0.0000000000 0.0049095718
0.9550000000 0.0000000000 0.0121755885
0.0000000000 0.0088840131 0.0157624521
0.0000000000 0.0088903907 0.0157600438
0.0000000000 0.0089394667 0.0157397842
0.0000000000 0.0087769846 0.0157188306
0.0070401400 0.0083155857 0.0155197246
0.0161081089 0.0077959999 0.0152756630
0.0263051461 0.0071357415 0.0150108257
0.0408437740 0.0062856929 0.0146253114
0.0805198089 0.0052333054 0.0134387854
0.1269886849 0.0040149789 0.0120709458
0.1791004187 0.0027263362 0.0105438620
0.2363313284 0.0013780998 0.0088619941
0.2972768352 0.0000000000 0.0071734332
0.3602691764 0.0000000000 0.0054873032
0.4235088511 0.0000000000 0.0038152188
0.4863782744 0.0000000000 0.0021733688
0.5475998053 0.0000000000 0.0006005414
0.6098976229 0.0000000000 0.0000000000
0.6775866238 0.0000000000 0.0000000000
0.7489762273 0.0000000000 0.0000000000
0.8206530402 0.0000000000 0.0000000000
0.8771328114 0.0000000000 0.0000000000
0.9196965405 0.0000000000 0.0000000000
0.9528343979 0.0000000000 0.0000000000
0.9550000000 0.0000000000 0.0000000000
0.9550000000 0.0000000000 0.0000000000
0.9550000000 0.0000000000 0.0000000000
0.9550000000 0.0000000000 0.0000000000
0.9550000000 0.0000000000 0.0000000000
0.9550000000 0.0000000000 0.0000000000
0.9550000000 0.0000000000 0.0005996603
0.9550000000 0.0000000000 0.0041967004
0.9550000000 0.0000000000 0.0115862456
0.0000000000 0.0117847484 0.0154483667
0.0000000000 0.0117939730 0.0154445592
0.0000000000 0.0118511880 0.0154224091
0.0000000000 0.0119375574 0.0153889149
0.0055085477 0.0116604475 0.0151956204
0.0150247615 0.0110263291 0.0149494599
0.0258212398 0.0102046949 0.0146816457
0.0433017275 0.0089886652 0.0142352131
0.0912914448 0.0069676481 0.0128618457
0.1485632561 0.0044912865 0.0112300720
0.2077041211 0.0023692014 0.0094962444
0.2666704873 0.0007560485 0.0077111515
0.3278334326 0.0000000000 0.0058549818
0.3902642986 0.0000000000 0.0040197050
0.4526779165 0.0000000000 0.0021733142
0.5141129308 0.0000000000 0.0003340791
0.5729271462 0.0000000000 0.0000000000
0.6330655673 0.0000000000 0.0000000000
0.6981644334 0.0000000000 0.0000000000
0.7665041539 0.0000000000 0.0000000000
0.8349446639 0.0000000000 0.0000000000
0.8849210310 0.0000000000 0.0000000000
0.9248676242 0.0000000000 0.0000000000
0.9550000000 0.0000000000 0.0000000000
0.9550000000 0.0000000000 0.0000000000
0.9550000000 0.0000000000 0.0000000000
0.9550000000 0.0000000000 0.0000000000
0.9550000000 0.0000000000 0.0000000000
0.9550000000 0.0000000000 0.0000000000
0.9550000000 0.0000000000 0.0000000000
0.9550000000 0.0000000000 0.0000000000
0.9550000000 0.0000000000 0.0028833669
0.9550000000 0.0000000000 0.0103443796
0.0000000000 0.0176627632 0.0148103923
0.0000000000 0.0176711710 0.0148074465
0.0000000000 0.0177379194 0.0147847861
0.0000000000 0.0178690395 0.0147402599
0.0041757128 0.0178743815 0.0145430853
0.0125675821 0.0175987995 0.0142941977
0.0230566047 0.0169292960 0.0140195711
0.0348388737 0.0158814751 0.0137442590
0.0859549379 0.0127936253 0.0123863137
0.1473183242 0.0093199958 0.0107299772
0.2129859804 0.0061953478 0.0088909869
0.2827730009 0.0032417477 0.0068954654
0.3537635383 0.0003214590 0.0048560805
0.4217483675 0.0000000000 0.0028763817
0.4851602598 0.0000000000 0.0009887824
0.5449237028 0.0000000000 0.0000000000
0.6033623235 0.0000000000 0.0000000000
0.6624131060 0.0000000000 0.0000000000
0.7260737188 0.0000000000 0.0000000000
0.7921768940 0.0000000000 0.0000000000
0.8536705295 0.0000000000 0.0000000000
0.8959478588 0.0000000000 0.0000000000
0.9322483124 0.0000000000 0.0000000000
0.9550000000 0.0000000000 0.0000000000
0.9550000000 0.0000000000 0.0000000000
0.9550000000 0.0000000000 0.0000000000
0.9550000000 0.0000000000 0.0000000000
0.9550000000 0.0000000000 0.0000000000
0.9550000000 0.0000000000 0.0000000000
0.9550000000 0.0000000000 0.0000000000
0.9550000000 0.0000000000 0.0000000000
0.9550000000 0.0000000000 0.0010212816
0.9550000000 0.0000000000 0.0085516180
0.0000000000 0.0247275491 0.0140484725
0.0000000000 0.0247388818 0.0140440043
0.0000000000 0.0248249163 0.0140110487
0.0000000000 0.0249679322 0.0139645104
0.0033895376 0.0250133046 0.0137685742
0.0109801607 0.0250086994 0.0135160077
0.0205421600 0.0247460604 0.0132266544
0.0315965000 0.0241047467 0.0129300175
0.0718161409 0.0221232981 0.0118112783
0.1301825932 0.0192780695 0.0101843808
0.1998525580 0.0156008954 0.0082739204
0.2736905010 0.0118872776 0.0062285808
0.3620275128 0.0114824941 0.0000000000
0.4401546782 0.0080623875 0.0000000000
0.4961715761 0.0000831225 0.0001347107
0.5652096483 0.0000000000 0.0000000000
0.6314532040 0.0000000000 0.0000000000
0.6925748178 0.0000000000 0.0000000000
0.7536542337 0.0000000000 0.0000000000
0.8158326064 0.0000000000 0.0000000000
0.8685311770 0.0000000000 0.0000000000
0.9085960306 0.0000000000 0.0000000000
0.9414041391 0.0000000000 0.0000000000
0.9550000000 0.0000000000 0.0000000000
0.9550000000 0.0000000000 0.0000000000
0.9550000000 0.0000000000 0.0000000000
0.9550000000 0.0000000000 0.0000000000
0.9550000000 0.0000000000 0.0000000000
0.9550000000 0.0000000000 0.0000000000
0.9550000000 0.0000000000 0.0000000000
0.9550000000 0.0000000000 0.0000000000
0.9550000000 0.0000000000 0.0000000000
0.9550000000 0.0000000000 0.0062978494
0.0000000000 0.0329479662 0.0131580293
0.0000000000 0.0329572624 0.0131550242
0.0000000000 0.0330243112 0.0131280762
0.0000000000 0.0331519299 0.0130744333
0.0023716018 0.0331948090 0.0128848550
0.0101340737 0.0332041100 0.0126249953
0.0190874075 0.0331801097 0.0123291694
0.0292123209 0.0329579361 0.0120165089
0.0586476743 0.0319411066 0.0111491398
0.1118419409 0.0298885347 0.0096057841
0.1762404916 0.0270927622 0.0077722200
0.2514359938 0.0234558147 0.0056730178
0.3449515694 0.0223525357 0.0000000000
0.4269408720 0.0190563222 0.0000000000
0.5056395383 0.0157554653 0.0000000000
0.5808353330 0.0124343042 0.0000000000
0.6538388553 0.0089766232 0.0000000000
0.7253291505 0.0053128066 0.0000000000
0.7997953158 0.0009030697 0.0000000000
0.8379368078 0.0000000000 0.0000000000
0.8829073588 0.0000000000 0.0000000000
0.9195598949 0.0000000000 0.0000000000
0.9490429352 0.0000000000 0.0000000000
0.9550000000 0.0000000000 0.0000000000
0.9550000000 0.0000000000 0.0000000000
0.9550000000 0.0000000000 0.0000000000
0.9550000000 0.0000000000 0.0000000000
0.9550000000 0.0000000000 0.0000000000
0.9550000000 0.0000000000 0.0000000000
0.9550000000 0.0000000000 0.0000000000
0.9550000000 0.0000000000 0.0000000000
0.9550000000 0.0000000000 0.0000000000
0.9550000000 0.0000000000 0.0033961786
0.0000000000 0.0417379026 0.0122138896
0.0000000000 0.0417451672 0.0122111666
0.0000000000 0.0418018014 0.0121798051
0.0000000000 0.0419047820 0.0121251493
0.0025262673 0.0418954251 0.0119077735
0.0096268958 0.0418786243 0.0116689454
0.0185263863 0.0418629148 0.0113739848
0.0277096788 0.0419141182 0.0110620566
0.0509389294 0.0414273296 0.0103421575
0.0984866742 0.0400344293 0.0089130747
0.1568075707 0.0380352102 0.0071928051
0.2262130510 0.0353501640 0.0051798829
0.3159336705 0.0347453602 0.0000000000
0.4017844274 0.0314775090 0.0000000000
0.4866110790 0.0280167686 0.0000000000
0.5670814303 0.0245218972 0.0000000000
0.6424621031 0.0211745856 0.0000000000
0.7158298337 0.0176380454 0.0000000000
0.7929125122 0.0136042940 0.0000000000
0.8631249017 0.0087082085 0.0000000000
0.9126444426 0.0032465846 0.0000000000
0.9535112374 0.0000000000 0.0000000000
0.9550000000 0.0000000000 0.0000000000
0.9550000000 0.0000000000 0.0000000000
0.9550000000 0.0000000000 0.0000000000
0.9550000000 0.0000000000 0.0000000000
0.9550000000 0.0000000000 0.0000000000
0.9550000000 0.0000000000 0.0000000000
0.9550000000 0.0000000000 0.0000000000
0.9550000000 0.0000000000 0.0000000000
0.9550000000 0.0000000000 0.0000000000
0.9550000000 0.0000000000 0.0000000000
0.9550000000 0.0000000000 0.0000000000
0.0000000000 0.0634002746 0.0098447134
0.0000000000 0.0634218256 0.0098396422
0.0000000000 0.0635892546 0.0097994487
0.0000000000 0.0638764266 0.0096822940
0.0021559915 0.0641732970 0.0094213084
0.0092440079 0.0648010558 0.0091106616
0.0168812558 0.0658404485 0.0087394426
0.0257809391 0.0668738583 0.0083268031
0.0452746228 0.0675469512 0.0076013577
0.0886209791 0.0670065301 0.0062167389
0.1420016167 0.0653199653 0.0046261169
0.2056778233 0.0622041662 0.0028525321
0.2787035716 0.0576189113 0.0009320378
0.3720857867 0.0543335342 0.0000000000
0.4568552142 0.0467454495 0.0000000000
0.5410568312 0.0378476362 0.0000000000
0.6221671926 0.0342583158 0.0000000000
0.7024018540 0.0304776855 0.0000000000
0.7822476981 0.0265420700 0.0000000000
0.8568625163 0.0223580752 0.0000000000
0.9079033931 0.0174099642 0.0000000000
0.9499979814 0.0112573126 0.0000000000
0.9550000000 0.0043042394 0.0000000000
0.9550000000 0.0000000000 0.0000000000
0.9550000000 0.0000000000 0.0000000000
0.9550000000 0.0000000000 0.0000000000
0.9550000000 0.0000000000 0.0000000000
0.9550000000 0.0000000000 0.0000000000
0.9550000000 0.0000000000 0.0000000000
0.9550000000 0.0000000000 0.0000000000
0.9550000000 0.0000000000 0.0000000000
0.9550000000 0.0009694718 0.0000000000
0.9550000000 0.0063932493 0.0000000000
0.0000000000 0.1010346063 0.0057199743
0.0000000000 0.1010598822 0.0057140868
0.0000000000 0.1012636237 0.0056520049
0.0000000000 0.1016973425 0.0054693423
0.0005244025 0.1025414670 0.0051828143
0.0070721239 0.1037039339 0.0048196100
0.0146050579 0.1049887087 0.0044243462
0.0230451333 0.1063148264 0.0039941997
0.0412868536 0.1073983532 0.0032644611
0.0816012372 0.1077952962 0.0018757954
0.1306693983 0.1073603137 0.0002885767
0.1893809335 0.1057714488 0.0000000000
0.2574573461 0.1027902065 0.0000000000
0.3454114950 0.1013445967 0.0000000000
0.4274463969 0.0956159976 0.0000000000
0.5100203471 0.0886139038 0.0000000000
0.5916174070 0.0800818643 0.0000000000
0.6745050907 0.0697058248 0.0000000000
0.7627399201 0.0566653979 0.0000000000
0.8486224424 0.0424257395 0.0000000000
0.9011395783 0.0310035695 0.0000000000
0.9438910135 0.0256796791 0.0000000000
0.9550000000 0.0192993860 0.0000000000
0.9550000000 0.0117946942 0.0000000000
0.9550000000 0.0038536293 0.0000000000
0.9550000000 0.0000000000 0.0000000000
0.9550000000 0.0000000000 0.0000000000
0.9550000000 0.0000000000 0.0000000000
0.9550000000 0.0000000000 0.0000000000
0.9550000000 0.0000000000 0.0000000000
0.9550000000 0.0000000000 0.0000000000
0.9550000000 0.0008492085 0.0000000000
0.9550000000 0.0062817116 0.0000000000
0.0000000000 0.1448875838 0.0009009285
0.0000000000 0.1449347491 0.0008898268
0.0000000000 0.1453069376 0.0008022425
0.0000000000 0.1459969200 0.0005882201
0.0000000000 0.1469821224 0.0002785587
0.0043160364 0.1482063438 0.0000000000
0.0119820378 0.1495521938 0.0000000000
0.0201902679 0.1509826032 0.0000000000
0.0372724474 0.1522331104 0.0000000000
0.0766920428 0.1528917650 0.0000000000
0.1225498587 0.1532627544 0.0000000000
0.1770839554 0.1528717365 0.0000000000
0.2407258287 0.1514223735 0.0000000000
0.3236170966 0.1518646243 0.0000000000
0.4020830540 0.1482232355 0.0000000000
0.4821663986 0.1430781302 0.0000000000
0.5618782231 0.1363469654 0.0000000000
0.6438147406 0.1276532947 0.0000000000
0.7333209988 0.1160073017 0.0000000000
0.8246344715 0.1012249750 0.0000000000
0.8890283603 0.0815919110 0.0000000000
0.9363055382 0.0616141557 0.0000000000
0.9550000000 0.0419496979 0.0000000000
0.9550000000 0.0268695792 0.0000000000
0.9550000000 0.0193344297 0.0000000000
0.9550000000 0.0104240364 0.0000000000
0.9550000000 0.0018355848 0.0000000000
0.9550000000 0.0000000000 0.0000000000
0.9550000000 0.0000000000 0.0000000000
0.9550000000 0.0000000000 0.0000000000
0.9550000000 0.0000000000 0.0000000000
0.9550000000 0.0006346333 0.0000000000
0.9550000000 0.0062131230 0.0000000000
0.0000000000 0.1945183542 0.0000000000
0.0000000000 0.1945659684 0.0000000000
0.0000000000 0.1949409873 0.0000000000
0.0000000000 0.1956529234 0.0000000000
0.0000000000 0.1966965283 0.0000000000
0.0015555247 0.1979840754 0.0000000000
0.0087509572 0.1994839816 0.0000000000
0.0170489364 0.2011149381 0.0000000000
0.0336208322 0.2025793452 0.0000000000
0.0718871395 0.2035193302 0.0000000000
0.1166473706 0.2042473977 0.0000000000
0.1681940130 0.2046854137 0.0000000000
0.2281136368 0.2044142787 0.0000000000
0.2945645849 0.2032046965 0.0000000000
0.3808325655 0.2044739129 0.0000000000
0.4579877777 0.2010451648 0.0000000000
0.5356550826 0.1961598490 0.0000000000
0.6156210681 0.1894855208 0.0000000000
0.7042395519 0.1799387427 0.0000000000
0.7952917738 0.1665468361 0.0000000000
0.8705749324 0.1462748175 0.0000000000
0.9238635313 0.1223383965 0.0000000000
0.9550000000 0.0974252057 0.0000000000
0.9550000000 0.0735437480 0.0000000000
0.9550000000 0.0475786374 0.0000000000
0.9550000000 0.0261886677 0.0000000000
0.9550000000 0.0161819627 0.0000000000
0.9550000000 0.0054903700 0.0000000000
0.9550000000 0.0000000000 0.0000000000
0.9550000000 0.0000000000 0.0000000000
0.9550000000 0.0006589113 0.0000000000
0.9550000000 0.0018269335 0.0000000000
0.9550000000 0.0064912839 0.0000000000
0.0000000000 0.2491486632 0.0000000000
0.0000000000 0.2491957605 0.0000000000
0.0000000000 0.2495652304 0.0000000000
0.0000000000 0.2502746043 0.0000000000
0.0000000000 0.2513005301 0.0000000000
0.0000000000 0.2526071598 0.0000000000
0.0053817290 0.2541216218 0.0000000000
0.0134360926 0.2557745072 0.0000000000
0.0298834432 0.2573457940 0.0000000000
0.0672471699 0.2584376259 0.0000000000
0.1110884764 0.2593751677 0.0000000000
0.1613494500 0.2600809070 0.0000000000
0.2184377089 0.2605091955 0.0000000000
0.2815456883 0.2603517019 0.0000000000
0.3638410068 0.2629559228 0.0000000000
0.4378177807 0.2614100436 0.0000000000
0.5129833781 0.2583552790 0.0000000000
0.5905712073 0.2537719079 0.0000000000
0.6776757184 0.2467320263 0.0000000000
0.7644861094 0.2332549483 0.0000000000
0.8508068325 0.2155775798 0.0000000000
0.9072497038 0.1926795973 0.0000000000
0.9550000000 0.1646197172 0.0000000000
0.9550000000 0.1345581646 0.0000000000
0.9550000000 0.1063192207 0.0000000000
0.9550000000 0.0754881299 0.0000000000
0.9550000000 0.0401406555 0.0000000000
0.9550000000 0.0209732308 0.0000000000
0.9550000000 0.0085110372 0.0000000000
0.9550000000 0.0042778788 0.0000000000
0.9550000000 0.0048736173 0.0000000000
0.9550000000 0.0057422354 0.0000000000
0.9550000000 0.0067081679 0.0000000000
0.0000000000 0.3066614602 0.0000000000
0.0000000000 0.3067049545 0.0000000000
0.0000000000 0.3070431846 0.0000000000
0.0000000000 0.3076981212 0.0000000000
0.0000000000 0.3086760611 0.0000000000
0.0000000000 0.3099179520 0.0000000000
0.0019585568 0.3113861558 0.0000000000
0.0097663636 0.3130424815 0.0000000000
0.0258541537 0.3146562135 0.0000000000
0.0628592102 0.3158204992 0.0000000000
0.1056537041 0.3168728122 0.0000000000
0.1552949804 0.3177273899 0.0000000000
0.2108462199 0.3183166385 0.0000000000
0.2715376909 0.3186900792 0.0000000000
0.3503917615 0.3221304314 0.0000000000
0.4211668297 0.3220224400 0.0000000000
0.4937330217 0.3206524264 0.0000000000
0.5688430539 0.3179856194 0.0000000000
0.6497400979 0.3103273483 0.0000000000
0.7352491974 0.2993228643 0.0000000000
0.8232102265 0.2845884363 0.0000000000
0.8897271580 0.2652519569 0.0000000000
0.9417137208 0.2399534827 0.0000000000
0.9550000000 0.2076348524 0.0000000000
0.9550000000 0.1720610707 0.0000000000
0.9550000000 0.1384484728 0.0000000000
0.9550000000 0.1018141798 0.0000000000
0.9550000000 0.0594145338 0.0000000000
0.9550000000 0.0245800753 0.0000000000
0.9550000000 0.0123936580 0.0000000000
0.9550000000 0.0099223205 0.0000000000
0.9550000000 0.0099916687 0.0000000000
0.9550000000 0.0105721630 0.0000000000
0.0000000000 0.3655356825 0.0000000000
0.0000000000 0.3655768201 0.0000000000
0.0000000000 0.3658950740 0.0000000000
0.0000000000 0.3665172285 0.0000000000
0.0000000000 0.3674479959 0.0000000000
0.0000000000 0.3686260970 0.0000000000
0.0000000000 0.3700056485 0.0000000000
0.0060788075 0.3715857107 0.0000000000
0.0217228419 0.3731288689 0.0000000000
0.0586455843 0.3742589217 0.0000000000
0.1006652203 0.3753106209 0.0000000000
0.1492738741 0.3762264796 0.0000000000
0.2041884441 0.3769719660 0.0000000000
0.2634583402 0.3774719753 0.0000000000
0.3402154341 0.3812853714 0.0000000000
0.4079247958 0.3819646819 0.0000000000
0.4766998775 0.3816028551 0.0000000000
0.5454981812 0.3775641183 0.0000000000
0.6232783309 0.3715517496 0.0000000000
0.7074098018 0.3631621435 0.0000000000
0.7959448031 0.3515702993 0.0000000000
0.8722680954 0.3357040437 0.0000000000
0.9264292437 0.3143628602 0.0000000000
0.9550000000 0.2859633781 0.0000000000
0.9550000000 0.2493430503 0.0000000000
0.9550000000 0.2081938632 0.0000000000
0.9550000000 0.1684824805 0.0000000000
0.9550000000 0.1241075000 0.0000000000
0.9550000000 0.0739776017 0.0000000000
0.9550000000 0.0266009337 0.0000000000
0.9550000000 0.0159182202 0.0000000000
0.9550000000 0.0148402251 0.0000000000
0.9550000000 0.0146865296 0.0000000000
0.0000000000 0.4243733865 0.0000000000
0.0000000000 0.4244124496 0.0000000000
0.0000000000 0.4247041079 0.0000000000
0.0000000000 0.4252642871 0.0000000000
0.0000000000 0.4261160456 0.0000000000
0.0000000000 0.4272115382 0.0000000000
0.0000000000 0.4284998587 0.0000000000
0.0022206982 0.4299742851 0.0000000000
0.0178885827 0.4314213067 0.0000000000
0.0540006934 0.4324771595 0.0000000000
0.0959940171 0.4335081836 0.0000000000
0.1437490739 0.4344599608 0.0000000000
0.1977051035 0.4352756650 0.0000000000
0.2560108319 0.4360614387 0.0000000000
0.3311500944 0.4401110117 0.0000000000
0.3941562442 0.4387061959 0.0000000000
0.4579683200 0.4368829599 0.0000000000
0.5249102563 0.4344195076 0.0000000000
0.6008588206 0.4302606171 0.0000000000
0.6837330828 0.4241351242 0.0000000000
0.7720008903 0.4152610764 0.0000000000
0.8565522177 0.4026368112 0.0000000000
0.9124984522 0.3852159660 0.0000000000
0.9550000000 0.3612920253 0.0000000000
0.9550000000 0.3291870679 0.0000000000
0.9550000000 0.2878643396 0.0000000000
0.9550000000 0.2400999027 0.0000000000
0.9550000000 0.1936433148 0.0000000000
0.9550000000 0.1409798823 0.0000000000
0.9550000000 0.0828273097 0.0000000000
0.9550000000 0.0278343505 0.0000000000
0.9550000000 0.0204771562 0.0000000000
0.9550000000 0.0194068811 0.0000000000
0.0000000000 0.4822517130 0.0000000000
0.0000000000 0.4822859132 0.0000000000
0.0000000000 0.4825527068 0.0000000000
0.0000000000 0.4830676002 0.0000000000
0.0000000000 0.4838471308 0.0000000000
0.0000000000 0.4848325886 0.0000000000
0.0000000000 0.4860313658 0.0000000000
0.0000000000 0.4874252690 0.0000000000
0.0141973406 0.4887854918 0.0000000000
0.0496699558 0.4898741296 0.0000000000
0.0908785781 0.4909337752 0.0000000000
0.1379515475 0.4919072707 0.0000000000
0.1904277637 0.4921605272 0.0000000000
0.2463801123 0.4906596304 0.0000000000
0.3187641524 0.4924432189 0.0000000000
0.3812002552 0.4912850158 0.0000000000
0.4439773282 0.4900104651 0.0000000000
0.5085994091 0.4884374078 0.0000000000
0.5818775374 0.4858144541 0.0000000000
0.6629807013 0.4814329286 0.0000000000
0.7502143783 0.4747976756 0.0000000000
0.8381526396 0.4649927202 0.0000000000
0.8990348233 0.4512490310 0.0000000000
0.9489853772 0.4318291029 0.0000000000
0.9550000000 0.4042403664 0.0000000000
0.9550000000 0.3674932276 0.0000000000
0.9550000000 0.3188769895 0.0000000000
0.9550000000 0.2670639885 0.0000000000
0.9550000000 0.2136869401 0.0000000000
0.9550000000 0.1524898371 0.0000000000
0.9550000000 0.0870636347 0.0000000000
0.9550000000 0.0292931587 0.0000000000
0.9550000000 0.0249212379 0.0000000000
0.0000000000 0.5416724040 0.0000000000
0.0000000000 0.5417037859 0.0000000000
0.0000000000 0.5419530059 0.0000000000
0.0000000000 0.5424243094 0.0000000000
0.0000000000 0.5431283489 0.0000000000
0.0000000000 0.5440482505 0.0000000000
0.0000000000 0.5451648158 0.0000000000
0.0000000000 0.5464643425 0.0000000000
0.0088695418 0.5477743182 0.0000000000
0.0442126319 0.5475577066 0.0000000000
0.0841216097 0.5468851086 0.0000000000
0.1301118597 0.5460089139 0.0000000000
0.1809585607 0.5449436811 0.0000000000
0.2363073712 0.5436730373 0.0000000000
0.2944221336 0.5422536945 0.0000000000
0.3693727370 0.5445652360 0.0000000000
0.4312108295 0.5434148103 0.0000000000
0.4952178125 0.5420765088 0.0000000000
0.5649227553 0.5403570559 0.0000000000
0.6442535925 0.5374113779 0.0000000000
0.7306356635 0.5321862965 0.0000000000
0.8189102141 0.5243348933 0.0000000000
0.8865938375 0.5129979956 0.0000000000
0.9381014241 0.4969182631 0.0000000000
0.9550000000 0.4740430875 0.0000000000
0.9550000000 0.4427778024 0.0000000000
0.9550000000 0.3989631384 0.0000000000
0.9550000000 0.3445933413 0.0000000000
0.9550000000 0.2892274307 0.0000000000
0.9550000000 0.2278720163 0.0000000000
0.9550000000 0.1590523895 0.0000000000
0.9550000000 0.0888949288 0.0000000000
0.9550000000 0.0389504215 0.0000000000
0.0000000000 0.6047265906 0.0000000000
0.0000000000 0.6047359169 0.0000000000
0.0000000000 0.6048105759 0.0000000000
0.0000000000 0.6049050046 0.0000000000
0.0000000000 0.6050193520 0.0000000000
0.0000000000 0.6051424788 0.0000000000
0.0000000000 0.6051780703 0.0000000000
0.0000000000 0.6052467566 0.0000000000
0.0006027973 0.6052140133 0.0000000000
0.0351466864 0.6046873424 0.0000000000
0.0749394402 0.6040090062 0.0000000000
0.1196504847 0.6031927160 0.0000000000
0.1701050933 0.6021755489 0.0000000000
